web/ui/src/components/theme/workflow/svgs/edit.svg

<svg height="20" viewBox="0 0 20 20" width="20" xmlns="http://www.w3.org/2000/svg"><g fill="none" fill-rule="evenodd"><path d="m0 0h20v20h-20z" fill="#000" fill-rule="nonzero" opacity="0"/><path d="m17.1875 16.5625c.3451758 0 .625.2798242.625.625s-.2798242.625-.625.625h-14.375c-.34517578 0-.625-.2798242-.625-.625s.27982422-.625.625-.625zm-.9557617-13.57548828c1.106914 1.10689453 1.1179687 2.89466797.0332031 4.01519531l-.0332031.03375-8.3083008 8.30832027c-.11479062.1147727-.26970754.1804193-.43201172.1830664h-3.17501953c-.34171875 0-.61939453-.2742578-.625-.6146484v-3.1754492c0-.1623217.06315273-.3182757.17609375-.4348633l.00697266-.0070703 8.30832034-8.30832031c1.1180859-1.11810547 2.9308593-1.11810547 4.0489453 0zm-4.3963281 2.11509765-6.89400395 6.89402343v2.2812109h2.28117188l6.89402347-6.89404292zm1.2502734-1.24992187-.0190039.01869141-.3473828.34734375 2.2811914 2.2811914.3473828-.34734375c.6236328-.62363281.6298633-1.63085937.0186914-2.26216797l-.0186914-.01902343c-.6236328-.62363282-1.6308789-.62986329-2.2621875-.01869141z" fill="#6b7b8d"/></g></svg>

<?xml version="1.0" encoding="UTF-8"?>
<svg width="20px" height="20px" viewBox="0 0 20 20" version="1.1" xmlns="http://www.w3.org/2000/svg" xmlns:xlink="http://www.w3.org/1999/xlink">
    <title>编辑备份 6</title>
    <g id="页面-1" stroke="none" stroke-width="1" fill="none" fill-rule="evenodd">
        <g id="建木CI-图形编辑器-工具栏（初始页）" transform="translate(-168.000000, -23.000000)">
            <g id="编组-10" transform="translate(1.000000, 0.000000)">
                <g id="编组-2" transform="translate(67.000000, 20.000000)">
                    <g id="编辑备份-6" transform="translate(100.000000, 3.000000)">
                        <rect id="矩形" fill="#000000" fill-rule="nonzero" opacity="0" x="0" y="0" width="20" height="20"></rect>
                        <path d="M17.1875,16.5625 C17.5326758,16.5625 17.8125,16.8423242 17.8125,17.1875 C17.8125,17.5326758 17.5326758,17.8125 17.1875,17.8125 L2.8125,17.8125 C2.46732422,17.8125 2.1875,17.5326758 2.1875,17.1875 C2.1875,16.8423242 2.46732422,16.5625 2.8125,16.5625 L17.1875,16.5625 Z M16.2317383,2.98701172 C17.3386523,4.09390625 17.349707,5.88167969 16.2649414,7.00220703 L16.2317383,7.03595703 L7.9234375,15.3442773 C7.80864688,15.45905 7.65372996,15.5246966 7.49142578,15.5273437 L4.31640625,15.5273437 C3.9746875,15.5273437 3.69701172,15.2530859 3.69140625,14.9126953 L3.69140625,11.7372461 C3.69140625,11.5749244 3.75455898,11.4189704 3.8675,11.3023828 L3.87447266,11.2953125 L12.182793,2.98699219 C13.3008789,1.86888672 15.1136523,1.86888672 16.2317383,2.98699219 L16.2317383,2.98701172 Z M11.8354102,5.10210937 L4.94140625,11.9961328 L4.94140625,14.2773437 L7.22257813,14.2773437 L14.1166016,7.38330078 L11.8354102,5.10210937 Z M13.0856836,3.8521875 L13.0666797,3.87087891 L12.7192969,4.21822266 L15.0004883,6.49941406 L15.3478711,6.15207031 C15.9715039,5.5284375 15.9777344,4.52121094 15.3665625,3.88990234 L15.3478711,3.87087891 C14.7242383,3.24724609 13.7169922,3.24101562 13.0856836,3.8521875 Z" id="形状" fill="#6B7B8D"></path>
                    </g>
                </g>
            </g>
        </g>
    </g>
</svg>
